src/assets/misc/email-white.svg

<svg height="13" viewBox="0 0 18 13" width="18" xmlns="http://www.w3.org/2000/svg"><path d="m8.31934 7.80664c.41211.26904.94921.26904 1.36132 0l7.77244-5.60596c.3418-.22265.5469-.59765.5469-.99951 0-.663572-.5498-1.20117-1.2275-1.20117h-15.54496c-.677735 0-1.22754.537598-1.22754 1.20117 0 .40186.205078.77686.546875.99951zm8.45316 4.77786c.6777 0 1.2275-.5591 1.2275-1.2486v-7.40231c0-.18505-.1006-.35498-.2607-.44238-.1602-.08691-.3545-.07715-.5059.02539l-7.0986 5.38819c-.68753.46582-1.58207.46582-2.26957 0l-7.098628-5.3877c-.151368-.10303-.345704-.11279-.50586-.02588-.160156.0874-.260742.25733-.260742.44238v7.40231c0 .6895.549805 1.2486 1.22754 1.2486z" fill="#fff" fill-rule="evenodd"/></svg>

<?xml version="1.0" encoding="UTF-8"?>
<svg width="18px" height="13px" viewBox="0 0 18 13" version="1.1" xmlns="http://www.w3.org/2000/svg" xmlns:xlink="http://www.w3.org/1999/xlink" xmlns:sketch="http://www.bohemiancoding.com/sketch/ns">
    <!-- Generator: Sketch 3.5.1 (25234) - http://www.bohemiancoding.com/sketch -->
    <title>email-white</title>
    <desc>Created with Sketch.</desc>
    <defs></defs>
    <g id="Page-1" stroke="none" stroke-width="1" fill="none" fill-rule="evenodd" sketch:type="MSPage">
        <g id="email-white" sketch:type="MSLayerGroup" fill="#FFFFFF">
            <g id="Page-1" sketch:type="MSShapeGroup">
                <g id="email-white">
                    <g id="Canvas">
                        <g id="buttons/mail">
                            <g id="path0_fill-link">
                                <path d="M8.31934,7.80664 C8.73145,8.07568 9.26855,8.07568 9.68066,7.80664 L17.4531,2.20068 C17.7949,1.97803 18,1.60303 18,1.20117 C18,0.537598 17.4502,0 16.7725,0 L1.22754,0 C0.549805,0 0,0.537598 0,1.20117 C0,1.60303 0.205078,1.97803 0.546875,2.20068 L8.31934,7.80664 L8.31934,7.80664 L8.31934,7.80664 Z M16.7725,12.5845 C17.4502,12.5845 18,12.0254 18,11.3359 L18,3.93359 C18,3.74854 17.8994,3.57861 17.7393,3.49121 C17.5791,3.4043 17.3848,3.41406 17.2334,3.5166 L10.1348,8.90479 C9.44727,9.37061 8.55273,9.37061 7.86523,8.90479 L0.766602,3.51709 C0.615234,3.41406 0.420898,3.4043 0.260742,3.49121 C0.100586,3.57861 0,3.74854 0,3.93359 L0,11.3359 C0,12.0254 0.549805,12.5845 1.22754,12.5845 L16.7725,12.5845 L16.7725,12.5845 L16.7725,12.5845 Z" id="path0_fill"></path>
                            </g>
                        </g>
                    </g>
                </g>
            </g>
        </g>
    </g>
</svg>
